X:297
M:4/4
L:1/4
K:C
E2 G G | A B c B | A2 B2 | c G A E | (G2 E C | G) F E2 | B2 c d | c A ^G A | B2 !sintro!E2 | B c (B G) | A F (E C) | G3/2 F/ E2 | E4 !eintro!|]
